X:1
T:Tripping Up the Stairs=20
M:6/8=20
L:1/8
K:D
AG | "D"FAA "G"GBB| "D"FAd fed| "A"cBc ABc|1 "D"dfe "A"dAG :|2 "D"dfe d2 =
:|/
c| "Bm"dBB fBB| dBd fed|1 "A"cAA eAA | efe edA :|2 "A"cBc ABc| "D"dfe d =
:|
